src/assets/images/homepage/partner-2.svg

<svg width="166" height="32" viewBox="0 0 166 32" fill="none" xmlns="http://www.w3.org/2000/svg">
<g id="Vector">
<path d="M15.0909 31.0909C23.4256 31.0909 30.1818 24.3347 30.1818 16V5.43637C30.1818 4.23567 29.7048 3.08414 28.8558 2.23511C28.0068 1.38608 26.8552 0.909102 25.6545 0.909102H15.8454V7.52948C15.8454 9.04008 15.9375 10.605 16.7298 11.8908C17.297 12.8122 18.0557 13.6009 18.9545 14.2033C19.8534 14.8057 20.8713 15.2077 21.9392 15.382L22.2281 15.4288C22.3473 15.4695 22.4507 15.5465 22.5239 15.6489C22.5972 15.7513 22.6365 15.8741 22.6365 16C22.6365 16.1259 22.5972 16.2487 22.5239 16.3511C22.4507 16.4535 22.3473 16.5305 22.2281 16.5712L21.9392 16.618C20.3789 16.8729 18.9381 17.6114 17.8202 18.7293C16.7023 19.8472 15.9638 21.288 15.7089 22.8483L15.6621 23.1373C15.6214 23.2564 15.5444 23.3598 15.442 23.4331C15.3396 23.5063 15.2168 23.5457 15.0909 23.5457C14.965 23.5457 14.8422 23.5063 14.7398 23.4331C14.6374 23.3598 14.5604 23.2564 14.5197 23.1373L14.4729 22.8483C14.2985 21.7804 13.8965 20.7625 13.2941 19.8637C12.6917 18.9649 11.9031 18.2061 10.9816 17.6389C9.6959 16.8466 8.13097 16.7546 6.62037 16.7546H0.0180991C0.412726 24.7384 7.00972 31.0909 15.0909 31.0909Z" fill="#0E1534"/>
<path d="M0 15.2454H6.62038C8.13098 15.2454 9.69591 15.1534 10.9817 14.3611C11.9867 13.7418 12.8328 12.8958 13.452 11.8907C14.2443 10.605 14.3364 9.04004 14.3364 7.52944V0.909058H4.52727C3.32657 0.909058 2.17504 1.38604 1.32601 2.23506C0.476979 3.08409 0 4.23562 0 5.43633V15.2454ZM35.0524 2.41815C35.0524 2.81838 34.8934 3.20223 34.6104 3.48524C34.3274 3.76825 33.9436 3.92724 33.5433 3.92724C33.1431 3.92724 32.7592 3.76825 32.4762 3.48524C32.1932 3.20223 32.0342 2.81838 32.0342 2.41815C32.0342 2.01791 32.1932 1.63407 32.4762 1.35106C32.7592 1.06805 33.1431 0.909058 33.5433 0.909058C33.9436 0.909058 34.3274 1.06805 34.6104 1.35106C34.8934 1.63407 35.0524 2.01791 35.0524 2.41815ZM159.746 10.0421C163.964 10.0421 166 12.9886 166 16.4014V22.8112H161.585V17.162C161.585 15.6151 161.021 14.3385 159.402 14.3385C157.784 14.3385 157.244 15.6151 157.244 17.162V22.8105H152.829V17.162C152.829 15.6151 152.29 14.3385 150.671 14.3385C149.052 14.3385 148.488 15.6151 148.488 17.162V22.8105H144.074V16.4006C144.074 12.9878 146.109 10.0413 150.327 10.0413C152.633 10.0413 154.301 10.9498 155.061 12.4476C155.87 10.9498 157.637 10.0406 159.746 10.0406V10.0421ZM136.14 18.8823C137.563 18.8823 138.176 17.5807 138.176 16.0332V10.5325H142.59V16.5734C142.59 20.1832 140.481 23.1795 136.14 23.1795C131.799 23.1795 129.69 20.1839 129.69 16.5734V10.5325H134.105V16.0332C134.105 17.58 134.717 18.8823 136.14 18.8823ZM123.198 23.2036C120.427 23.2036 118.636 22.2461 117.582 20.3801L120.77 18.5873C121.212 19.3728 121.873 19.7659 122.977 19.7659C123.885 19.7659 124.302 19.4467 124.302 19.0536C124.302 17.5558 117.827 19.0785 117.827 14.3151C117.827 12.0062 119.789 10.1402 123.124 10.1402C126.043 10.1402 127.637 11.564 128.349 12.9395L125.16 14.7565C124.891 14.02 124.056 13.5779 123.223 13.5779C122.585 13.5779 122.242 13.848 122.242 14.2162C122.242 15.7389 128.716 14.3392 128.716 18.9555C128.716 21.5338 126.19 23.2036 123.198 23.2036ZM107.774 28.459H103.359V16.6474C103.359 12.8897 106.18 10.1643 110.104 10.1643C113.93 10.1643 116.849 13.0867 116.849 16.6474C116.849 20.5763 114.249 23.1795 110.349 23.1795C109.442 23.1795 108.535 22.9093 107.774 22.4913V28.459ZM110.104 19.0295C111.502 19.0295 112.434 17.949 112.434 16.6715C112.434 15.3707 111.502 14.3143 110.104 14.3143C108.706 14.3143 107.774 15.3707 107.774 16.6723C107.774 17.949 108.706 19.0295 110.104 19.0295ZM98.9368 9.23169C97.4895 9.23169 96.2883 8.02819 96.2883 6.57947C96.2883 5.13074 97.4895 3.92724 98.9368 3.92724C100.384 3.92724 101.586 5.13074 101.586 6.57947C101.586 8.02819 100.384 9.23169 98.9368 9.23169ZM96.7297 10.5325H101.145V22.8112H96.7297V10.5325ZM88.2592 23.1795C84.4329 23.1795 81.5143 20.233 81.5143 16.6474C81.5143 13.0867 84.4329 10.1402 88.2592 10.1402C92.0855 10.1402 95.0041 13.0867 95.0041 16.6474C95.0041 20.233 92.0855 23.1795 88.2592 23.1795ZM88.2592 19.0295C89.6574 19.0295 90.5892 17.949 90.5892 16.6715C90.5892 15.3707 89.6574 14.2902 88.2592 14.2902C86.861 14.2902 85.9292 15.3707 85.9292 16.6715C85.9292 17.949 86.861 19.0295 88.2592 19.0295ZM73.1781 28.8272C70.1373 28.8272 67.9295 27.4766 66.8014 25.0696L70.4557 23.1055C70.848 23.9408 71.5837 24.8002 73.1041 24.8002C74.6992 24.8002 75.7533 23.7929 75.8763 22.025C75.2878 22.5411 74.3552 22.9335 72.9578 22.9335C69.548 22.9335 66.8007 20.3062 66.8007 16.6225C66.8007 13.0625 69.72 10.1643 73.5463 10.1643C77.4707 10.1643 80.2912 12.8905 80.2912 16.6474V21.5097C80.2912 25.9298 77.2247 28.8272 73.1781 28.8272ZM73.4724 18.7842C74.7966 18.7842 75.8024 17.875 75.8024 16.5244C75.8024 15.1986 74.7973 14.3143 73.4724 14.3143C72.1723 14.3143 71.1423 15.1986 71.1423 16.5251C71.1423 17.8758 72.1723 18.7842 73.4724 18.7842ZM59.3126 23.1795C55.4863 23.1795 52.5669 20.233 52.5669 16.6474C52.5669 13.0867 55.4863 10.1402 59.3126 10.1402C63.1381 10.1402 66.0574 13.0867 66.0574 16.6474C66.0574 20.233 63.1389 23.1795 59.3126 23.1795ZM59.3126 19.0295C60.7107 19.0295 61.6426 17.949 61.6426 16.6715C61.6426 15.3707 60.7107 14.2902 59.3126 14.2902C57.9144 14.2902 56.9825 15.3707 56.9825 16.6715C56.9825 17.949 57.9144 19.0295 59.3126 19.0295ZM44.528 6.23615V18.6363H51.8373V22.8112H43.9145C41.119 22.8112 39.9909 21.3376 39.9909 19.0046V6.23615H44.528Z" fill="#0E1534"/>
</g>
</svg>

<svg xmlns="http://www.w3.org/2000/svg" width="166" height="32" fill="none"><g fill="#0E1534"><path d="M15.09 31.09c8.336 0 15.092-6.755 15.092-15.09V5.436A4.527 4.527 0 0 0 25.655.91h-9.81v6.62c0 1.511.092 3.076.885 4.362a7.55 7.55 0 0 0 5.21 3.491l.288.047a.603.603 0 0 1 0 1.142l-.289.047a7.55 7.55 0 0 0-6.23 6.23l-.047.29a.604.604 0 0 1-1.142 0l-.047-.29a7.55 7.55 0 0 0-3.491-5.21c-1.286-.791-2.851-.883-4.362-.883H.018C.413 24.738 7.01 31.09 15.091 31.09"/><path d="M0 15.245h6.62c1.511 0 3.076-.092 4.362-.884a7.56 7.56 0 0 0 2.47-2.47c.792-1.286.884-2.851.884-4.362V.91H4.527A4.527 4.527 0 0 0 0 5.436zM35.052 2.418a1.51 1.51 0 1 1-3.018 0 1.51 1.51 0 0 1 3.018 0m124.694 7.624c4.218 0 6.254 2.947 6.254 6.36v6.41h-4.415v-5.65c0-1.547-.564-2.823-2.183-2.823s-2.158 1.276-2.158 2.823v5.649h-4.415v-5.649c0-1.547-.539-2.823-2.158-2.823s-2.183 1.276-2.183 2.823v5.649h-4.414V16.4c0-3.413 2.035-6.36 6.253-6.36 2.306 0 3.974.909 4.734 2.407.809-1.498 2.576-2.407 4.685-2.407zm-23.606 8.84c1.423 0 2.036-1.301 2.036-2.849v-5.5h4.414v6.04c0 3.61-2.109 6.607-6.45 6.607s-6.45-2.996-6.45-6.607v-6.04h4.415v5.5c0 1.547.612 2.85 2.035 2.85m-12.942 4.322c-2.771 0-4.562-.958-5.616-2.824l3.188-1.793c.442.786 1.103 1.179 2.207 1.179.908 0 1.325-.32 1.325-.712 0-1.498-6.475.024-6.475-4.739 0-2.309 1.962-4.175 5.297-4.175 2.919 0 4.513 1.424 5.225 2.8l-3.189 1.817c-.269-.737-1.104-1.18-1.937-1.18-.638 0-.981.271-.981.64 0 1.522 6.474.122 6.474 4.739 0 2.578-2.526 4.248-5.518 4.248m-15.424 5.255h-4.415V16.647c0-3.757 2.821-6.483 6.745-6.483 3.826 0 6.745 2.923 6.745 6.483 0 3.93-2.6 6.533-6.5 6.533-.907 0-1.814-.27-2.575-.689zm2.33-9.43c1.398 0 2.33-1.08 2.33-2.357 0-1.301-.932-2.358-2.33-2.358s-2.33 1.057-2.33 2.358c0 1.277.932 2.357 2.33 2.357M98.937 9.232c-1.447 0-2.649-1.204-2.649-2.653 0-1.448 1.202-2.652 2.649-2.652s2.649 1.204 2.649 2.652c0 1.45-1.202 2.653-2.65 2.653m-2.207 1.3h4.415v12.28H96.73zM88.26 23.18c-3.827 0-6.746-2.947-6.746-6.533 0-3.56 2.919-6.507 6.745-6.507s6.745 2.947 6.745 6.507c0 3.586-2.919 6.533-6.745 6.533m0-4.15c1.397 0 2.33-1.081 2.33-2.358 0-1.301-.933-2.382-2.33-2.382-1.399 0-2.33 1.08-2.33 2.382 0 1.277.931 2.357 2.33 2.357m-15.082 9.797c-3.04 0-5.248-1.35-6.377-3.757l3.655-1.965c.392.836 1.128 1.695 2.648 1.695 1.595 0 2.65-1.007 2.772-2.775-.588.516-1.52.909-2.918.909-3.41 0-6.157-2.628-6.157-6.312 0-3.56 2.919-6.458 6.745-6.458 3.925 0 6.745 2.726 6.745 6.483v4.863c0 4.42-3.066 7.317-7.113 7.317m.294-10.043c1.325 0 2.33-.909 2.33-2.26 0-1.325-1.005-2.21-2.33-2.21-1.3 0-2.33.885-2.33 2.211 0 1.35 1.03 2.26 2.33 2.26m-14.16 4.396c-3.826 0-6.745-2.947-6.745-6.533 0-3.56 2.92-6.507 6.746-6.507 3.825 0 6.744 2.947 6.744 6.507 0 3.586-2.918 6.533-6.744 6.533m0-4.15c1.399 0 2.33-1.081 2.33-2.358 0-1.301-.931-2.382-2.33-2.382-1.398 0-2.33 1.08-2.33 2.382 0 1.277.932 2.357 2.33 2.357M44.529 6.235v12.4h7.31v4.175h-7.924c-2.795 0-3.923-1.473-3.923-3.806V6.236z"/></g></svg>
